Numix-Circle/48x48/apps/calligrawords.svg

<?xml version="1.0" encoding="UTF-8" standalone="no"?>
<svg
   xmlns:dc="http://purl.org/dc/elements/1.1/"
   xmlns:cc="http://creativecommons.org/ns#"
   xmlns:rdf="http://www.w3.org/1999/02/22-rdf-syntax-ns#"
   xmlns:svg="http://www.w3.org/2000/svg"
   xmlns="http://www.w3.org/2000/svg"
   xmlns:xlink="http://www.w3.org/1999/xlink"
   xmlns:sodipodi="http://sodipodi.sourceforge.net/DTD/sodipodi-0.dtd"
   xmlns:inkscape="http://www.inkscape.org/namespaces/inkscape"
   width="48"
   viewBox="0 0 13.546667 13.546667"
   height="48"
   id="svg2"
   version="1.1"
   inkscape:version="0.91 r13725"
   sodipodi:docname="calligrawords.svg"
   inkscape:export-filename="/home/ismael/Imágenes/calligra/calligrawords.png"
   inkscape:export-xdpi="245"
   inkscape:export-ydpi="245">
  <metadata
     id="metadata331">
    <rdf:RDF>
      <cc:Work
         rdf:about="">
        <dc:format>image/svg+xml</dc:format>
        <dc:type
           rdf:resource="http://purl.org/dc/dcmitype/StillImage" />
        <dc:title />
      </cc:Work>
    </rdf:RDF>
  </metadata>
  <sodipodi:namedview
     pagecolor="#ffffff"
     bordercolor="#666666"
     borderopacity="1"
     objecttolerance="10"
     gridtolerance="10"
     guidetolerance="10"
     inkscape:pageopacity="0"
     inkscape:pageshadow="2"
     inkscape:window-width="1366"
     inkscape:window-height="713"
     id="namedview329"
     showgrid="true"
     inkscape:zoom="17.340426"
     inkscape:cx="24.5"
     inkscape:cy="23.5"
     inkscape:window-x="0"
     inkscape:window-y="28"
     inkscape:window-maximized="1"
     inkscape:current-layer="layer3"
     showguides="true"
     inkscape:guide-bbox="true"
     inkscape:object-paths="true"
     inkscape:snap-intersection-paths="true"
     inkscape:snap-smooth-nodes="true"
     inkscape:object-nodes="true">
    <inkscape:grid
       type="xygrid"
       id="grid3308" />
  </sodipodi:namedview>
  <defs
     id="defs4">
    <linearGradient
       inkscape:collect="always"
       id="linearGradient4652">
      <stop
         style="stop-color:#ffe169;stop-opacity:1"
         offset="0"
         id="stop4654" />
      <stop
         style="stop-color:#ffdd55;stop-opacity:1"
         offset="1"
         id="stop4656" />
    </linearGradient>
    <linearGradient
       inkscape:collect="always"
       xlink:href="#linearGradient4652"
       id="linearGradient4658"
       x1="-0.28222221"
       y1="6.7733335"
       x2="-13.264444"
       y2="6.7733335"
       gradientUnits="userSpaceOnUse" />
  </defs>
  <g
     inkscape:groupmode="layer"
     id="layer1"
     inkscape:label="Shadow"
     sodipodi:insensitive="true">
    <path
       style="opacity:0.05;fill:#000000;fill-opacity:1;stroke:none"
       d="M 25,2 C 12.297451,2 2,12.297451 2,25 2,31.367153 4.6007106,37.116628 8.78125,41.28125 12.865755,44.99361 18.29568,47.25 24.25,47.25 c 12.702549,0 23,-10.297451 23,-23 0,-5.95432 -2.25639,-11.384245 -5.96875,-15.46875 C 37.116628,4.6007105 31.367153,2 25,2 z M 41.28125,8.78125 C 45.135604,12.894061 47.5,18.418655 47.5,24.5 c 0,12.702549 -10.297451,23 -23,23 C 18.418655,47.5 12.894061,45.135604 8.78125,41.28125 12.940939,45.4251 18.664604,48 25,48 37.702549,48 48,37.702549 48,25 48,18.664604 45.4251,12.940939 41.28125,8.78125 z"
       transform="scale(0.28222223,0.28222223)"
       id="path3978"
       inkscape:connector-curvature="0" />
    <path
       style="opacity:0.1;fill:#000000;fill-opacity:1;stroke:none"
       d="M 41.28125,8.78125 C 44.99361,12.865755 47.25,18.29568 47.25,24.25 c 0,12.702549 -10.297451,23 -23,23 -5.95432,0 -11.384245,-2.25639 -15.46875,-5.96875 C 12.894061,45.135604 18.418655,47.5 24.5,47.5 c 12.702549,0 23,-10.297451 23,-23 0,-6.081345 -2.364396,-11.605939 -6.21875,-15.71875 z"
       transform="scale(0.28222223,0.28222223)"
       id="path3976"
       inkscape:connector-curvature="0" />
    <path
       transform="matrix(4.3274074,0,0,3.2455556,117.19278,-35.348334)"
       d="m -24,13 a 1.5,2 0 1 1 -3,0 1.5,2 0 1 1 3,0 z"
       sodipodi:ry="2"
       sodipodi:rx="1.5"
       sodipodi:cy="13"
       sodipodi:cx="-25.5"
       id="path3952"
       style="opacity:0.2;fill:#000000;fill-opacity:1;stroke:none"
       sodipodi:type="arc" />
  </g>
  <g
     inkscape:groupmode="layer"
     id="layer2"
     inkscape:label="Base">
    <circle
       style="fill:url(#linearGradient4658);fill-opacity:1;stroke:none"
       id="path3942"
       transform="matrix(0,-1,1,0,0,0)"
       cx="-6.7733335"
       cy="6.7733335"
       r="6.4911113" />
    <path
       style="opacity:0.1;fill:#000000;fill-opacity:1;stroke:none"
       d="M 40.03125 7.53125 C 43.74361 11.615755 46 17.04568 46 23 C 46 35.702549 35.702549 46 23 46 C 17.04568 46 11.615755 43.74361 7.53125 40.03125 C 11.709416 44.322508 17.537578 47 24 47 C 36.702549 47 47 36.702549 47 24 C 47 17.537578 44.322508 11.709416 40.03125 7.53125 z "
       transform="scale(0.28222223,0.28222223)"
       id="path4027" />
    <path
       style="color:#000000;font-style:normal;font-variant:normal;font-weight:normal;font-stretch:normal;font-size:medium;line-height:normal;font-family:sans-serif;text-indent:0;text-align:start;text-decoration:none;text-decoration-line:none;text-decoration-style:solid;text-decoration-color:#000000;letter-spacing:normal;word-spacing:normal;text-transform:none;direction:ltr;block-progression:tb;writing-mode:lr-tb;baseline-shift:baseline;text-anchor:start;white-space:normal;clip-rule:nonzero;display:inline;overflow:visible;visibility:visible;opacity:0.6;isolation:auto;mix-blend-mode:normal;color-interpolation:sRGB;color-interpolation-filters:linearRGB;solid-color:#000000;solid-opacity:1;fill:#1a1a1a;fill-opacity:1;fill-rule:nonzero;stroke:none;stroke-width:0.56444442;stroke-linecap:butt;stroke-linejoin:miter;stroke-miterlimit:4;stroke-dasharray:none;stroke-dashoffset:0;stroke-opacity:1;color-rendering:auto;image-rendering:auto;shape-rendering:auto;text-rendering:auto;enable-background:accumulate"
       d="m 7.1768186,2.505818 c -2.334836,10e-8 -4.2333335,1.8984978 -4.2333334,4.2333332 0,2.3348357 1.8984974,4.2333338 4.2333334,4.2333338 1.3658028,0 2.5785357,-0.652554 3.3530424,-1.6591584 l -0.6906728,0 C 9.1661124,10.009414 8.2237637,10.443318 7.1768186,10.443318 c -2.0488574,0 -3.7041666,-1.6553094 -3.7041666,-3.7041668 0,-2.0488571 1.6553092,-3.7041666 3.7041666,-3.7041666 1.0802922,0 2.0481393,0.4629144 2.7246569,1.1983421 l 0.6796485,0 C 9.8096626,3.1879784 8.573212,2.505818 7.1768186,2.505818 Z"
       id="path4522"
       inkscape:connector-curvature="0" />
  </g>
  <g
     inkscape:groupmode="layer"
     id="layer3"
     inkscape:label="Symbol">
    <path
       id="path3416"
       d="M 4.8154168,3.6688888 4.7977778,10.142361 9.5779168,10.16 9.5955558,3.6865277 4.8154168,3.6688887 z m 0.4497917,0.555625 a 0.21153789,0.21141864 0 0 1 0.035278,0 0.21153789,0.21141864 0 0 1 0.061736,0.00882 A 0.21153789,0.21141864 0 0 1 5.5121529,4.4361804 0.21153789,0.21141864 0 0 1 5.3004862,4.6478471 0.21153789,0.21141864 0 0 1 5.0888196,4.4361804 0.21153789,0.21141864 0 0 1 5.2652085,4.2245138 z m 0,1.6227778 a 0.21153789,0.21141864 0 0 1 0.035278,0 0.21153789,0.21141864 0 0 1 0.061736,0.00882 A 0.21153789,0.21141864 0 0 1 5.5121529,6.0589583 0.21153789,0.21141864 0 0 1 5.3004862,6.2706249 0.21153789,0.21141864 0 0 1 5.0888196,6.0589583 0.21153789,0.21141864 0 0 1 5.2652085,5.8472916 z m -0.026458,1.6315973 a 0.21153789,0.21141864 0 0 1 0.026458,0 0.21153789,0.21141864 0 0 1 0.035278,0 0.21153789,0.21141864 0 0 1 0.061736,0.00882 A 0.21153789,0.21141864 0 0 1 5.5121529,7.6905555 0.21153789,0.21141864 0 0 1 5.3004862,7.9022222 0.21153789,0.21141864 0 0 1 5.0888196,7.6905555 0.21153789,0.21141864 0 0 1 5.2387501,7.4788889 z m 0.026458,1.6227778 a 0.21153789,0.21141864 0 0 1 0.035278,0 0.21153789,0.21141864 0 0 1 0.061736,0.00882 A 0.21153789,0.21141864 0 0 1 5.5121529,9.3133334 0.21153789,0.21141864 0 0 1 5.3004862,9.525 0.21153789,0.21141864 0 0 1 5.0888196,9.3133334 0.21153789,0.21141864 0 0 1 5.2652085,9.1016667 z"
       style="fill:#000000;fill-opacity:1;fill-rule:nonzero;stroke:none;opacity:0.1"
       inkscape:connector-curvature="0" />
    <path
       style="fill:#f9f9f9;fill-opacity:1;fill-rule:nonzero;stroke:none"
       d="M 16.0625 12 L 16 34.9375 L 32.9375 35 L 33 12.0625 L 16.0625 12 z M 17.65625 13.96875 A 0.74954369 0.74912115 0 0 1 17.78125 13.96875 A 0.74954369 0.74912115 0 0 1 18 14 A 0.74954369 0.74912115 0 0 1 18.53125 14.71875 A 0.74954369 0.74912115 0 0 1 17.78125 15.46875 A 0.74954369 0.74912115 0 0 1 17.03125 14.71875 A 0.74954369 0.74912115 0 0 1 17.65625 13.96875 z M 17.65625 19.71875 A 0.74954369 0.74912115 0 0 1 17.78125 19.71875 A 0.74954369 0.74912115 0 0 1 18 19.75 A 0.74954369 0.74912115 0 0 1 18.53125 20.46875 A 0.74954369 0.74912115 0 0 1 17.78125 21.21875 A 0.74954369 0.74912115 0 0 1 17.03125 20.46875 A 0.74954369 0.74912115 0 0 1 17.65625 19.71875 z M 17.5625 25.5 A 0.74954369 0.74912115 0 0 1 17.65625 25.5 A 0.74954369 0.74912115 0 0 1 17.78125 25.5 A 0.74954369 0.74912115 0 0 1 18 25.53125 A 0.74954369 0.74912115 0 0 1 18.53125 26.25 A 0.74954369 0.74912115 0 0 1 17.78125 27 A 0.74954369 0.74912115 0 0 1 17.03125 26.25 A 0.74954369 0.74912115 0 0 1 17.5625 25.5 z M 17.65625 31.25 A 0.74954369 0.74912115 0 0 1 17.78125 31.25 A 0.74954369 0.74912115 0 0 1 18 31.28125 A 0.74954369 0.74912115 0 0 1 18.53125 32 A 0.74954369 0.74912115 0 0 1 17.78125 32.75 A 0.74954369 0.74912115 0 0 1 17.03125 32 A 0.74954369 0.74912115 0 0 1 17.65625 31.25 z "
       id="path3410"
       transform="scale(0.28222223,0.28222223)" />
    <path
       sodipodi:nodetypes="casccccccccccccacc"
       inkscape:connector-curvature="0"
       id="path4646"
       d="m 7.7367481,4.4498015 c 0,0 0.5015858,0.6132808 0.6705204,0.9776775 0.074226,0.1601093 0.1276604,0.3370341 0.1437771,0.5160501 0.089526,0.9944069 -0.2724167,2.978295 -0.2724167,2.978295 L 7.2145093,5.9830192 6.9001789,6.1818133 6.2907499,8.4843413 6.0493396,6.2288331 6.2563984,6.0472512 5.8789494,6.0681232 6.043941,9.3133336 6.3582715,9.1145392 7.0462437,6.5932939 7.9542068,9.19182 8.350659,9.1858655 c 0,0 0.3720212,-2.2661379 0.39853,-3.4144156 C 8.757699,5.4025402 8.671971,4.666894 8.671971,4.666894 z"
       style="opacity:0.1;fill:#000000;fill-rule:evenodd;stroke:none" />
    <path
       style="fill:#71c837;fill-rule:evenodd;stroke:none"
       d="m 7.5022434,4.126893 c 0,0 0.5015859,0.6132808 0.6705205,0.9776774 0.074225,0.1601093 0.1276605,0.3370342 0.143777,0.5160501 0.089526,0.9944069 -0.2724168,2.978295 -0.2724168,2.978295 L 6.9800048,5.6601108 6.6656743,5.8589047 6.0562453,8.1614328 5.8148351,5.9059246 6.0218939,5.7243426 5.6444446,5.745215 5.8094362,8.9904254 6.1237667,8.791631 6.8117391,6.2703858 7.7197021,8.868912 8.1161542,8.862962 c 0,0 0.3720213,-2.2661379 0.3985302,-3.4144156 0.00851,-0.3689147 -0.077218,-1.1045609 -0.077218,-1.1045609 z"
       id="path4548"
       inkscape:connector-curvature="0"
       sodipodi:nodetypes="casccccccccccccacc" />
  </g>
</svg>

<svg xmlns="http://www.w3.org/2000/svg" width="48" viewBox="0 0 13.546667 13.546667" height="48">
 <defs>
  <linearGradient id="linearGradient4658" x1="-0.282" x2="-13.264" gradientUnits="userSpaceOnUse">
   <stop style="stop-color:#ffe169;stop-opacity:1"/>
   <stop offset="1" style="stop-color:#fd5;stop-opacity:1"/>
  </linearGradient>
 </defs>
 <g>
  <path d="m 25 2 c -12.703 0 -23 10.297 -23 23 0 6.367 2.601 12.12 6.781 16.281 4.085 3.712 9.514 5.969 15.469 5.969 c 12.703 0 23 -10.297 23 -23 0 -5.954 -2.256 -11.384 -5.969 -15.469 c -4.165 -4.181 -9.914 -6.781 -16.281 -6.781 z m 16.281 6.781 c 3.854 4.113 6.219 9.637 6.219 15.719 c 0 12.703 -10.297 23 -23 23 c -6.081 0 -11.606 -2.364 -15.719 -6.219 4.16 4.144 9.883 6.719 16.219 6.719 12.703 0 23 -10.297 23 -23 0 -6.335 -2.575 -12.06 -6.719 -16.219 z" transform="scale(0.28222223,0.28222223)" style="fill:#000;opacity:0.05;fill-opacity:1;stroke:none"/>
  <path d="m 41.28 8.781 c 3.712 4.085 5.969 9.514 5.969 15.469 c 0 12.703 -10.297 23 -23 23 -5.954 0 -11.384 -2.256 -15.469 -5.969 c 4.113 3.854 9.637 6.219 15.719 6.219 c 12.703 0 23 -10.297 23 -23 0 -6.081 -2.364 -11.606 -6.219 -15.719 z" transform="scale(0.28222223,0.28222223)" style="fill:#000;opacity:0.1;fill-opacity:1;stroke:none"/>
  <path transform="matrix(4.3274074,0,0,3.2455556,117.19278,-35.348334)" d="m -24 13 a 1.5 2 0 1 1 -3 0 1.5 2 0 1 1 3 0 z" style="fill:#000;opacity:0.2;fill-opacity:1;stroke:none"/>
 </g>
 <g>
  <circle transform="matrix(0,-1,1,0,0,0)" cx="-6.773" cy="6.773" r="6.491" style="fill:url(#linearGradient4658);fill-opacity:1;stroke:none"/>
  <path d="m 40.03 7.531 c 3.712 4.085 5.969 9.514 5.969 15.469 c 0 12.703 -10.297 23 -23 23 c -5.954 0 -11.384 -2.256 -15.469 -5.969 c 4.178 4.291 10.01 6.969 16.469 6.969 c 12.703 0 23 -10.297 23 -23 c 0 -6.462 -2.677 -12.291 -6.969 -16.469 z" transform="scale(0.28222223,0.28222223)" style="fill:#000;opacity:0.1;fill-opacity:1;stroke:none"/>
  <path d="m 7.177 2.506 c -2.335 0 -4.233 1.898 -4.233 4.233 0 2.335 1.898 4.233 4.233 4.233 1.366 0 2.579 -0.653 3.353 -1.659 l -0.691 0 c -0.673 0.696 -1.615 1.13 -2.662 1.13 c -2.049 0 -3.704 -1.655 -3.704 -3.704 0 -2.049 1.655 -3.704 3.704 -3.704 1.08 0 2.048 0.463 2.725 1.198 l 0.68 0 c -0.771 -1.045 -2.01 -1.728 -3.404 -1.728" mix-blend-mode="normal" isolation="auto" white-space="normal" solid-opacity="1" solid-color="#000000" style="visibility:visible;shape-rendering:auto;color-interpolation-filters:linearRGB;fill:#1a1a1a;opacity:0.6;image-rendering:auto;fill-opacity:1;stroke:none;display:inline;color:#000;fill-rule:nonzero;color-rendering:auto;color-interpolation:sRGB"/>
 </g>
 <g>
  <path d="m 4.815 3.669 -0.018 6.473 4.78 0.018 0.018 -6.473 -4.78 -0.018 z m 0.45 0.556 a 0.212 0.211 0 0 1 0.035 0 0.212 0.211 0 0 1 0.062 0.009 a 0.212 0.211 0 0 1 0.15 0.203 0.212 0.211 0 0 1 -0.212 0.212 0.212 0.211 0 0 1 -0.212 -0.212 0.212 0.211 0 0 1 0.176 -0.212 z m 0 1.623 a 0.212 0.211 0 0 1 0.035 0 0.212 0.211 0 0 1 0.062 0.009 a 0.212 0.211 0 0 1 0.15 0.203 0.212 0.211 0 0 1 -0.212 0.212 0.212 0.211 0 0 1 -0.212 -0.212 0.212 0.211 0 0 1 0.176 -0.212 z m -0.026 1.632 a 0.212 0.211 0 0 1 0.026 0 0.212 0.211 0 0 1 0.035 0 0.212 0.211 0 0 1 0.062 0.009 a 0.212 0.211 0 0 1 0.15 0.203 0.212 0.211 0 0 1 -0.212 0.212 0.212 0.211 0 0 1 -0.212 -0.212 0.212 0.211 0 0 1 0.15 -0.212 z m 0.026 1.623 a 0.212 0.211 0 0 1 0.035 0 0.212 0.211 0 0 1 0.062 0.009 a 0.212 0.211 0 0 1 0.15 0.203 0.212 0.211 0 0 1 -0.212 0.212 0.212 0.211 0 0 1 -0.212 -0.212 0.212 0.211 0 0 1 0.176 -0.212 z" style="fill:#000;opacity:0.1;fill-opacity:1;stroke:none;fill-rule:nonzero"/>
  <path d="m 16.06 12 l -0.063 22.938 l 16.938 0.063 l 0.063 -22.938 l -16.938 -0.063 z m 1.594 1.969 a 0.75 0.749 0 0 1 0.125 0 a 0.75 0.749 0 0 1 0.219 0.031 a 0.75 0.749 0 0 1 0.531 0.719 a 0.75 0.749 0 0 1 -0.75 0.75 a 0.75 0.749 0 0 1 -0.75 -0.75 a 0.75 0.749 0 0 1 0.625 -0.75 z m 0 5.75 a 0.75 0.749 0 0 1 0.125 0 a 0.75 0.749 0 0 1 0.219 0.031 a 0.75 0.749 0 0 1 0.531 0.719 a 0.75 0.749 0 0 1 -0.75 0.75 a 0.75 0.749 0 0 1 -0.75 -0.75 a 0.75 0.749 0 0 1 0.625 -0.75 z m -0.094 5.781 a 0.75 0.749 0 0 1 0.094 0 a 0.75 0.749 0 0 1 0.125 0 a 0.75 0.749 0 0 1 0.219 0.031 a 0.75 0.749 0 0 1 0.531 0.719 a 0.75 0.749 0 0 1 -0.75 0.75 a 0.75 0.749 0 0 1 -0.75 -0.75 a 0.75 0.749 0 0 1 0.531 -0.75 z m 0.094 5.75 a 0.75 0.749 0 0 1 0.125 0 a 0.75 0.749 0 0 1 0.219 0.031 a 0.75 0.749 0 0 1 0.531 0.719 a 0.75 0.749 0 0 1 -0.75 0.75 a 0.75 0.749 0 0 1 -0.75 -0.75 a 0.75 0.749 0 0 1 0.625 -0.75 z" transform="scale(0.28222223,0.28222223)" style="fill:#f9f9f9;fill-opacity:1;stroke:none;fill-rule:nonzero"/>
  <path d="m 7.737 4.45 c 0 0 0.502 0.613 0.671 0.978 0.074 0.16 0.128 0.337 0.144 0.516 0.09 0.994 -0.272 2.978 -0.272 2.978 l -1.064 -2.939 -0.314 0.199 -0.609 2.303 -0.241 -2.256 0.207 -0.182 -0.377 0.021 0.165 3.245 0.314 -0.199 0.688 -2.521 0.908 2.599 0.396 -0.006 c 0 0 0.372 -2.266 0.399 -3.414 c 0.009 -0.369 -0.077 -1.105 -0.077 -1.105 z" style="fill:#000;opacity:0.1;stroke:none;fill-rule:evenodd"/>
  <path d="m 7.502 4.127 c 0 0 0.502 0.613 0.671 0.978 0.074 0.16 0.128 0.337 0.144 0.516 0.09 0.994 -0.272 2.978 -0.272 2.978 l -1.064 -2.939 -0.314 0.199 -0.609 2.303 -0.241 -2.256 0.207 -0.182 -0.377 0.021 0.165 3.245 0.314 -0.199 0.688 -2.521 0.908 2.599 0.396 -0.006 c 0 0 0.372 -2.266 0.399 -3.414 0.009 -0.369 -0.077 -1.105 -0.077 -1.105 z" style="fill:#71c837;stroke:none;fill-rule:evenodd"/>
 </g>
</svg>
